X:2
T:All the blue bonnets are over the border
O:scotland
R:Jig
M:6/8
K:Hp
e|A2A c2e|a2a a2e|g>ag f<af|e>cA B2c|\
A2A c2e|a2a a2e|f>ed c2e|f<ac B2A:|
|:A>ce e>ce|f>ed c>BA|A>ce f>ga|A>Bc B2A|\
A>ce e>ce|f>ed c>BA|
a>gf e>ce|f<ac B2A :: \
d3 d3|d>fe| d2A|d2B G2g|a>gf g>fe|
d3 d3 |d>fe d2A| d>cB A>Bc|d>ef e2d :: \
d>fa a>fd|a>gf f>ef|
d>fa a>fd|d>ef e2d|\
d>fa a>fd|a>gf f>ef|d>cB A>Bc|d>ef e2d:|
